svgs/duotone/bandage.svg

<svg xmlns="http://www.w3.org/2000/svg" viewBox="0 0 640 512"><!--! Font Awesome Pro 6.6.0 by @fontawesome - https://fontawesome.com License - https://fontawesome.com/license (Commercial License) Copyright 2024 Fonticons, Inc. --><defs><style>.fa-secondary{opacity:.4}</style></defs><path class="fa-secondary" d="M0 160L0 352c0 35.3 28.7 64 64 64l96 0 0-320L64 96C28.7 96 0 124.7 0 160zM192 96l0 320 256 0 0-320L192 96zM296 208a24 24 0 1 1 -48 0 24 24 0 1 1 48 0zm0 96a24 24 0 1 1 -48 0 24 24 0 1 1 48 0zm96-96a24 24 0 1 1 -48 0 24 24 0 1 1 48 0zm0 96a24 24 0 1 1 -48 0 24 24 0 1 1 48 0zM480 96l0 320 96 0c35.3 0 64-28.7 64-64l0-192c0-35.3-28.7-64-64-64l-96 0z"/><path class="fa-primary" d="M192 96l-32 0 0 320 32 0 0-320zm288 0l-32 0 0 320 32 0 0-320z"/></svg>

<svg xmlns="http://www.w3.org/2000/svg" viewBox="0 0 640 512"><!--! Font Awesome Pro 6.4.0 by @fontawesome - https://fontawesome.com License - https://fontawesome.com/license (Commercial License) Copyright 2023 Fonticons, Inc. --><defs><style>.fa-secondary{opacity:.4}</style></defs><path class="fa-primary" d="M192 96H160V416h32V96zm288 0H448V416h32V96z"/><path class="fa-secondary" d="M480 416h96c35.3 0 64-28.7 64-64V160c0-35.3-28.7-64-64-64H480V416zM448 96H192V416H448V96zM64 96C28.7 96 0 124.7 0 160V352c0 35.3 28.7 64 64 64h96V96H64zM248 208a24 24 0 1 1 48 0 24 24 0 1 1 -48 0zm120-24a24 24 0 1 1 0 48 24 24 0 1 1 0-48zM248 304a24 24 0 1 1 48 0 24 24 0 1 1 -48 0zm120-24a24 24 0 1 1 0 48 24 24 0 1 1 0-48z"/></svg>
